X:518
T: "Troestung"
N: Z1198
O: Europa, Mitteleuropa, Deutschland, Bayern; Tirol
R: Liebes - Lied
M: 3/4
L: 1/8
K: A
A2 | e3dc2 | c2B2
B2 | f3ed2 | d2c2
c2 | e3dc2 | c2B2
B2 | f3ed2 | c4

@@@ Tune index: 10276
